public/header.svg

<svg width="1376" height="365" viewBox="0 0 1376 365" fill="none" xmlns="http://www.w3.org/2000/svg">
<g clip-path="url(#clip0)">
<path d="M-0.725098 4.8541V170.214H101.247C143.859 170.214 151.915 163.006 151.915 124.634V120.394C151.915 95.5901 143.859 88.3821 115.239 86.4741C139.195 83.9301 145.979 77.7821 145.979 52.3421V47.8901C145.979 11.6381 138.983 4.8541 101.247 4.8541H-0.725098ZM43.7949 132.902V103.222H88.7389C104.427 103.222 107.395 105.554 107.395 118.274C107.395 130.146 104.427 132.902 88.7389 132.902H43.7949ZM43.7949 68.8781V41.3181H86.6189C99.127 41.3181 101.459 43.6501 101.459 55.3101C101.459 66.5461 99.127 68.8781 86.6189 68.8781H43.7949Z" fill="white"/>
<path d="M290.451 4.8541H218.371L161.343 170.214H210.103L219.219 137.99H285.575L295.963 170.214H346.843L290.451 4.8541ZM229.607 101.95L252.715 38.7741H254.411L275.611 101.95H229.607Z" fill="white"/>
<path d="M400.733 115.73V113.61H354.093V115.73C354.093 163.854 365.965 172.758 435.077 172.758C502.281 172.758 513.518 165.126 513.518 125.27C513.518 92.4101 509.277 85.2021 486.169 78.8421C471.754 74.8141 460.094 72.2701 435.077 67.3941C408.153 63.5781 401.793 61.2461 401.793 52.7661C401.793 40.8941 406.882 38.3501 435.077 38.3501C460.941 38.3501 464.969 41.9541 464.969 59.5501V61.6701H511.609V59.5501C511.609 11.2141 499.525 2.31009 435.077 2.31009C372.326 2.31009 357.273 12.2741 357.273 48.3141C357.273 83.2941 362.573 90.9261 390.345 97.4981C412.605 102.586 420.873 104.494 435.077 106.826C461.154 111.914 468.997 114.246 468.997 123.362C468.997 134.598 463.273 136.718 435.077 136.718C406.457 136.718 400.733 134.174 400.733 115.73Z" fill="white"/>
<path d="M530.306 4.8541V170.214H665.774V132.054H574.826V104.494H654.962V68.4541H574.826V43.0141H665.774V4.8541H530.306Z" fill="white"/>
<path d="M729.201 170.214V47.2541H730.473L754.853 170.214H814.213L842.197 47.2541H843.469V170.214H887.989V4.8541H810.185L785.381 132.054H783.685L762.273 4.8541H684.681V170.214H729.201Z" fill="white"/>
<path d="M906.962 4.8541V170.214H1042.43V132.054H951.482V104.494H1031.62V68.4541H951.482V43.0141H1042.43V4.8541H906.962Z" fill="white"/>
<path d="M1061.34 170.214H1103.74V68.4541H1105.01L1167.34 170.214H1218.22V4.8541H1175.82V106.614H1174.55L1114.34 4.8541H1061.34V170.214Z" fill="white"/>
<path d="M1280.49 170.214H1325.01V40.8941H1376.1V4.8541H1229.82V40.8941H1280.49V170.214Z" fill="white"/>
<path fill-rule="evenodd" clip-rule="evenodd" d="M246.044 296.396V300.516C246.044 309.688 247.509 313.86 251.496 316.202C253.646 317.464 256.719 318.317 261.177 318.832C265.617 319.344 271.243 319.504 278.388 319.504C285.424 319.504 291.001 319.371 295.418 319.004C299.855 318.635 302.986 318.038 305.194 317.176C307.346 316.337 308.52 315.287 309.22 314.012C309.959 312.668 310.308 310.827 310.308 308.148C310.308 306.172 309.89 304.761 309.054 303.606C308.193 302.416 306.742 301.294 304.303 300.192C299.346 297.952 291.138 296.138 278.034 293.581C264.061 291.286 255.78 289.393 234.522 284.533L233.203 284.232L233.195 284.23C219.293 280.94 210.313 277.259 205.048 269.464C199.864 261.788 198.584 250.526 198.584 233.1C198.584 214.84 202.403 202.415 214.922 194.87C221.045 191.179 229.103 188.753 239.468 187.237C249.844 185.719 262.661 185.096 278.388 185.096C294.524 185.096 307.489 185.652 317.843 187.266C328.192 188.88 336.109 191.576 342.018 195.987C353.969 204.907 356.92 220.213 356.92 244.336V248.456H306.28V244.336C306.28 235.47 305.195 231.196 301.853 228.752C300.104 227.473 297.539 226.542 293.668 225.951C289.807 225.362 284.829 225.136 278.388 225.136C271.356 225.136 265.828 225.295 261.482 225.71C257.115 226.127 254.087 226.79 251.981 227.721C249.946 228.621 248.822 229.744 248.142 231.158C247.42 232.659 247.104 234.683 247.104 237.552C247.104 239.421 247.453 240.713 248.164 241.741C248.889 242.79 250.154 243.8 252.436 244.776C257.1 246.771 265.134 248.282 278.669 250.2L278.72 250.207L278.771 250.217C303.797 255.095 315.521 257.651 330.015 261.701C341.634 264.899 349.168 268.461 353.543 275.89C357.808 283.132 358.828 293.699 358.828 310.056C358.828 330.009 356.064 342.947 343.857 350.45C337.898 354.113 329.865 356.36 319.249 357.713C308.615 359.068 295.209 359.544 278.388 359.544C261.088 359.544 247.269 358.988 236.288 357.38C225.317 355.773 216.995 353.091 210.821 348.707C198.3 339.817 195.404 324.531 195.404 300.516V296.396H246.044ZM329.48 263.628C315.064 259.6 303.404 257.056 278.388 252.18C251.464 248.364 245.104 246.032 245.104 237.552C245.104 225.68 250.192 223.136 278.388 223.136C304.252 223.136 308.28 226.74 308.28 244.336V246.456H354.92V244.336C354.92 196 342.836 187.096 278.388 187.096C215.636 187.096 200.584 197.06 200.584 233.1C200.584 268.08 205.884 275.712 233.656 282.284L234.931 282.576C256.238 287.446 264.459 289.325 278.388 291.612C304.464 296.7 312.308 299.032 312.308 308.148C312.308 319.384 306.584 321.504 278.388 321.504C249.768 321.504 244.044 318.96 244.044 300.516V298.396H197.404V300.516C197.404 348.64 209.276 357.544 278.388 357.544C345.592 357.544 356.828 349.912 356.828 310.056C356.828 277.196 352.588 269.988 329.48 263.628ZM533.321 187.64V287.16C533.321 302.035 532.606 314.028 530.519 323.625C528.426 333.249 524.922 340.604 519.244 346.055C513.574 351.498 505.935 354.85 495.939 356.855C485.96 358.856 473.477 359.544 457.969 359.544C442.461 359.544 429.977 358.856 419.998 356.855C410.002 354.85 402.364 351.498 396.694 346.055C391.016 340.604 387.512 333.249 385.418 323.625C383.331 314.028 382.617 302.035 382.617 287.16V187.64H431.137V287.16C431.137 294.394 431.416 300.031 432.184 304.436C432.951 308.838 434.177 311.836 435.942 313.938C439.434 318.097 445.685 319.504 457.969 319.504C470.253 319.504 476.503 318.097 479.995 313.938C481.76 311.836 482.987 308.838 483.754 304.436C484.521 300.031 484.801 294.394 484.801 287.16V187.64H533.321ZM531.321 189.64V287.16C531.321 346.52 519.873 357.544 457.969 357.544C396.065 357.544 384.617 346.52 384.617 287.16V189.64H429.137V287.16C429.137 316.204 433.589 321.504 457.969 321.504C482.349 321.504 486.801 316.204 486.801 287.16V189.64H531.321ZM559.378 187.64H655.93C677.584 187.64 692.138 190.624 701.136 199.793C710.121 208.949 713.05 223.753 713.05 245.82V254.3C713.05 275.738 710.328 290.22 701.993 299.519C693.624 308.856 680.053 312.474 659.852 313.537L659.799 313.54H607.898V357H559.378V187.64ZM605.898 355H561.378V189.64H655.93C699.178 189.64 711.05 201.724 711.05 245.82V254.3C711.05 297.124 700.026 309.42 659.746 311.54H605.898V355ZM607.898 227.68V271.38H644.482C649.112 271.38 652.646 271.153 655.371 270.558C658.068 269.969 659.827 269.049 661.054 267.761C662.29 266.463 663.18 264.589 663.747 261.723C664.317 258.84 664.53 255.117 664.53 250.272C664.53 245.106 664.317 241.122 663.743 238.03C663.17 234.947 662.267 232.92 661.013 231.519C659.777 230.14 658.022 229.17 655.346 228.549C652.634 227.92 649.11 227.68 644.482 227.68H607.898ZM735.933 187.64H832.485C854.139 187.64 868.693 190.624 877.691 199.793C886.676 208.949 889.605 223.753 889.605 245.82V254.3C889.605 275.738 886.883 290.22 878.547 299.519C870.178 308.856 856.608 312.474 836.406 313.537L836.354 313.54H784.453V357H735.933V187.64ZM782.453 355H737.933V189.64H832.485C875.733 189.64 887.605 201.724 887.605 245.82V254.3C887.605 297.124 876.581 309.42 836.301 311.54H782.453V355ZM784.453 227.68V271.38H821.037C825.666 271.38 829.201 271.153 831.926 270.558C834.622 269.969 836.382 269.049 837.609 267.761C838.845 266.463 839.735 264.589 840.302 261.723C840.872 258.84 841.085 255.117 841.085 250.272C841.085 245.106 840.872 241.122 840.297 238.03C839.724 234.947 838.821 232.92 837.567 231.519C836.332 230.14 834.577 229.17 831.901 228.549C829.188 227.92 825.664 227.68 821.037 227.68H784.453ZM912.488 187.64H961.008V314.84H1035V357H912.488V187.64ZM1033 316.84V355H914.488V189.64H959.008V316.84H1033ZM1187.1 187.64L1126.99 296.579V357H1078.47V296.587L1017.27 187.64H1072.8L1102.95 247.943L1133.73 187.64H1187.1ZM1071.57 189.64H1020.68L1080.47 296.064V355H1124.99V296.064L1183.71 189.64H1134.95L1103.58 251.12H1102.3L1071.57 189.64ZM605.898 273.38H644.482C663.138 273.38 666.53 269.776 666.53 250.272C666.53 229.496 663.138 225.68 644.482 225.68H605.898V273.38ZM782.453 273.38H821.037C839.693 273.38 843.085 269.776 843.085 250.272C843.085 229.496 839.693 225.68 821.037 225.68H782.453V273.38Z" fill="white"/>
<path d="M1263.85 294.271V290.871H1257.01L1261.63 286.951C1263.39 285.451 1263.65 284.951 1263.73 282.431C1263.85 279.231 1262.81 278.431 1257.41 278.431C1251.99 278.431 1251.19 279.271 1251.19 283.831V284.031H1255.19V283.831C1255.19 282.171 1255.67 281.631 1257.39 281.631C1259.17 281.631 1259.65 282.071 1259.65 283.191C1259.65 284.191 1259.15 284.691 1258.01 285.651L1251.11 291.471V294.271H1263.85Z" fill="white"/>
<path d="M1265.65 294.271H1269.85V288.011H1272.07L1275.61 294.271H1280.41L1275.35 286.111L1280.21 278.671H1275.61L1271.95 284.411H1269.85V278.671H1265.65V294.271Z" fill="white"/>
<path d="M1284.41 294.271H1288.21V278.671H1284.61C1284.61 280.711 1284.17 281.091 1282.43 281.091H1280.61V283.891H1284.41V294.271Z" fill="white"/>
<path d="M1289.61 283.611V284.251C1289.61 288.091 1290.59 288.931 1294.17 288.931C1296.61 288.931 1297.89 288.251 1298.39 286.511V289.911C1298.39 291.251 1298.01 291.511 1295.83 291.511C1294.37 291.511 1294.07 291.351 1294.07 290.431H1290.07C1290.07 293.811 1290.83 294.431 1295.97 294.431C1301.25 294.431 1302.19 293.771 1302.19 290.191V282.951C1302.15 279.451 1300.87 278.431 1295.99 278.431C1290.61 278.431 1289.61 279.251 1289.61 283.611ZM1293.61 283.831V283.811C1293.61 281.951 1293.95 281.631 1295.99 281.631C1298.05 281.631 1298.39 281.871 1298.39 283.131V284.391C1298.39 285.551 1297.79 285.831 1295.99 285.831C1293.95 285.831 1293.61 285.511 1293.61 283.831Z" fill="white"/>
<path fill-rule="evenodd" clip-rule="evenodd" d="M1329.1 309.467C1342.72 303.012 1350.5 294.39 1350.5 285.366C1350.5 276.342 1342.72 267.72 1329.1 261.266C1315.59 254.866 1296.82 250.866 1276 250.866C1255.18 250.866 1236.41 254.866 1222.9 261.266C1209.28 267.72 1201.5 276.342 1201.5 285.366C1201.5 294.39 1209.28 303.012 1222.9 309.467C1236.41 315.867 1255.18 319.866 1276 319.866C1296.82 319.866 1315.59 315.867 1329.1 309.467ZM1276 321.366C1317.97 321.366 1352 305.249 1352 285.366C1352 265.484 1317.97 249.366 1276 249.366C1234.03 249.366 1200 265.484 1200 285.366C1200 305.249 1234.03 321.366 1276 321.366Z" fill="white"/>
<path d="M78.8491 278.671V294.271H91.6291V290.671H83.0491V288.071H90.6091V284.671H83.0491V282.271H91.6291V278.671H78.8491Z" fill="white"/>
<path d="M97.2242 289.131V288.931H92.8242V289.131C92.8242 293.671 93.9442 294.511 100.464 294.511C106.804 294.511 107.864 293.791 107.864 290.031C107.864 286.931 107.464 286.251 105.284 285.651C103.924 285.271 102.824 285.031 100.464 284.571C97.9242 284.211 97.3242 283.991 97.3242 283.191C97.3242 282.071 97.8042 281.831 100.464 281.831C102.904 281.831 103.284 282.171 103.284 283.831V284.031H107.684V283.831C107.684 279.271 106.544 278.431 100.464 278.431C94.5442 278.431 93.1242 279.371 93.1242 282.771C93.1242 286.071 93.6242 286.791 96.2442 287.411C98.3442 287.891 99.124 288.071 100.464 288.291C102.924 288.771 103.664 288.991 103.664 289.851C103.664 290.911 103.124 291.111 100.464 291.111C97.7642 291.111 97.2242 290.871 97.2242 289.131Z" fill="white"/>
<path d="M113.339 294.271H117.539V282.071H122.359V278.671H108.559V282.071H113.339V294.271Z" fill="white"/>
<path fill-rule="evenodd" clip-rule="evenodd" d="M153.098 309.467C166.724 303.012 174.5 294.39 174.5 285.366C174.5 276.342 166.724 267.72 153.098 261.266C139.587 254.866 120.815 250.866 99.9999 250.866C79.1847 250.866 60.4134 254.866 46.902 261.266C33.2762 267.72 25.5 276.342 25.5 285.366C25.5 294.39 33.2762 303.012 46.902 309.467C60.4134 315.867 79.1847 319.866 99.9999 319.866C120.815 319.866 139.587 315.867 153.098 309.467ZM99.9999 321.366C141.974 321.366 176 305.249 176 285.366C176 265.484 141.974 249.366 99.9999 249.366C58.0264 249.366 24 265.484 24 285.366C24 305.249 58.0264 321.366 99.9999 321.366Z" fill="white"/>
</g>
<defs>
<clipPath id="clip0">
<rect width="1376" height="365" fill="white"/>
</clipPath>
</defs>
</svg>

<svg xmlns="http://www.w3.org/2000/svg" fill="none" viewBox="0 0 1376 365">
  <defs/>
  <g fill="#fff" clip-path="url(#clip0)">
    <path d="M-.73 4.85v165.36h101.98c42.6 0 50.66-7.2 50.66-45.58v-4.24c0-24.8-8.05-32-36.67-33.92 23.95-2.54 30.74-8.69 30.74-34.13V47.9c0-36.25-7-43.04-44.73-43.04H-.73zM43.8 132.9v-29.68h44.95c15.69 0 18.66 2.33 18.66 15.05 0 11.88-2.97 14.63-18.66 14.63H43.79zm0-64.02V41.32h42.83c12.5 0 14.84 2.33 14.84 13.99 0 11.24-2.33 13.57-14.84 13.57H43.79zM290.45 4.85h-72.08l-57.03 165.36h48.76l9.12-32.22h66.35l10.4 32.22h50.87L290.45 4.85zm-60.84 97.1l23.1-63.18h1.7l21.2 63.18h-46zM400.73 115.73v-2.12H354.1v2.12c0 48.12 11.88 57.03 80.99 57.03 67.2 0 78.44-7.63 78.44-47.49 0-32.86-4.24-40.07-27.35-46.43-14.42-4.03-26.08-6.57-51.1-11.45-26.92-3.81-33.28-6.14-33.28-14.62 0-11.88 5.1-14.42 33.29-14.42 25.86 0 29.89 3.6 29.89 21.2v2.12h46.64v-2.12c0-48.34-12.09-57.24-76.53-57.24-62.75 0-77.8 9.96-77.8 46 0 34.98 5.3 42.62 33.07 49.19 22.25 5.09 30.52 7 44.73 9.33 26.07 5.08 33.92 7.42 33.92 16.53 0 11.24-5.73 13.36-33.92 13.36-28.62 0-34.35-2.55-34.35-20.99zM530.3 4.85v165.36h135.47v-38.16h-90.94V104.5h80.13V68.45h-80.13V43.01h90.94V4.85H530.31zM729.2 170.21V47.25h1.27l24.38 122.96h59.36L842.2 47.25h1.27v122.96h44.52V4.85h-77.8l-24.8 127.2h-1.7L762.26 4.85h-77.59v165.36h44.52zM906.96 4.85v165.36h135.47v-38.16h-90.95V104.5h80.14V68.45h-80.14V43.01h90.95V4.85H906.96zM1061.34 170.21h42.4V68.45h1.27l62.33 101.76h50.88V4.85h-42.4v101.76h-1.27L1114.34 4.85h-53v165.36zM1280.49 170.21h44.52V40.9h51.09V4.85h-146.28V40.9h50.67v129.32z"/>
    <path fill-rule="evenodd" d="M246.04 296.4v4.12c0 9.17 1.47 13.34 5.46 15.68 2.15 1.26 5.22 2.12 9.68 2.63 4.44.51 10.06.67 17.2.67 7.04 0 12.62-.13 17.04-.5 4.44-.37 7.57-.96 9.77-1.82 2.16-.84 3.33-1.9 4.03-3.17.74-1.34 1.09-3.18 1.09-5.86 0-1.98-.42-3.39-1.26-4.54-.86-1.2-2.3-2.32-4.75-3.42-4.95-2.24-13.16-4.05-26.27-6.6-13.97-2.3-22.25-4.2-43.5-9.06l-1.33-.3c-13.9-3.29-22.89-6.97-28.15-14.77-5.19-7.67-6.47-18.93-6.47-36.36 0-18.26 3.82-30.69 16.34-38.23 6.13-3.7 14.18-6.12 24.55-7.63 10.37-1.52 23.2-2.14 38.92-2.14 16.13 0 29.1.55 39.45 2.17 10.35 1.61 18.27 4.3 24.18 8.72 11.95 8.92 14.9 24.22 14.9 48.35v4.12h-50.64v-4.12c0-8.87-1.08-13.14-4.43-15.59-1.75-1.28-4.31-2.2-8.18-2.8-3.86-.59-8.84-.81-15.28-.81-7.03 0-12.56.16-16.9.57-4.38.42-7.4 1.08-9.5 2.01-2.04.9-3.17 2.02-3.85 3.44-.72 1.5-1.04 3.52-1.04 6.4 0 1.86.35 3.15 1.06 4.18.73 1.05 2 2.06 4.28 3.04 4.66 2 12.7 3.5 26.23 5.42h.05l.05.02c25.03 4.88 36.75 7.43 51.25 11.48 11.61 3.2 19.15 6.76 23.52 14.19 4.27 7.24 5.29 17.8 5.29 34.17 0 19.95-2.77 32.89-14.97 40.39-5.96 3.66-14 5.91-24.61 7.26-10.63 1.36-24.04 1.83-40.86 1.83-17.3 0-31.12-.55-42.1-2.16-10.97-1.6-19.3-4.29-25.47-8.67-12.52-8.9-15.42-24.18-15.42-48.2v-4.11h50.64zm83.44-32.77c-14.42-4.03-26.08-6.57-51.1-11.45-26.92-3.82-33.28-6.15-33.28-14.63 0-11.87 5.1-14.41 33.29-14.41 25.86 0 29.89 3.6 29.89 21.2v2.12h46.64v-2.12c0-48.34-12.08-57.24-76.53-57.24-62.75 0-77.8 9.96-77.8 46 0 34.98 5.3 42.61 33.07 49.18l1.27.3c21.3 4.87 29.53 6.75 43.46 9.03 26.07 5.09 33.92 7.42 33.92 16.54 0 11.23-5.73 13.35-33.92 13.35-28.62 0-34.35-2.54-34.35-20.98v-2.12H197.4v2.12c0 48.12 11.88 57.02 80.99 57.02 67.2 0 78.44-7.63 78.44-47.48 0-32.86-4.24-40.07-27.35-46.43zm203.84-75.99v99.52c0 14.88-.71 26.87-2.8 36.46-2.1 9.63-5.6 16.98-11.28 22.44-5.67 5.44-13.3 8.79-23.3 10.8-9.98 2-22.46 2.68-37.97 2.68-15.5 0-28-.68-37.97-2.69-10-2-17.64-5.35-23.3-10.8-5.68-5.45-9.19-12.8-11.28-22.43-2.09-9.6-2.8-21.58-2.8-36.46v-99.52h48.52v99.52c0 7.23.28 12.87 1.04 17.28.77 4.4 2 7.4 3.76 9.5 3.5 4.16 9.75 5.56 22.03 5.56 12.28 0 18.53-1.4 22.02-5.56 1.77-2.1 3-5.1 3.76-9.5.77-4.4 1.05-10.05 1.05-17.28v-99.52h48.52zm-2 2v97.52c0 59.36-11.45 70.38-73.35 70.38-61.9 0-73.35-11.02-73.35-70.38v-97.52h44.52v97.52c0 29.04 4.45 34.34 28.83 34.34s28.83-5.3 28.83-34.34v-97.52h44.52zm28.06-2h96.55c21.65 0 36.2 2.98 45.2 12.15 9 9.16 11.92 23.96 11.92 46.03v8.48c0 21.44-2.72 35.92-11.06 45.22-8.37 9.34-21.94 12.95-42.14 14.02H607.9V357h-48.52V187.64zM605.9 355h-44.52V189.64h94.55c43.25 0 55.12 12.08 55.12 56.18v8.48c0 42.82-11.02 55.12-51.3 57.24H605.9V355zm2-127.32v43.7h36.58c4.63 0 8.17-.23 10.9-.82 2.69-.6 4.45-1.51 5.67-2.8 1.24-1.3 2.13-3.17 2.7-6.04.57-2.88.78-6.6.78-11.45 0-5.16-.21-9.15-.79-12.24-.57-3.08-1.47-5.11-2.73-6.51-1.23-1.38-2.99-2.35-5.66-2.97-2.72-.63-6.24-.87-10.87-.87H607.9zm128.03-40.04h96.56c21.65 0 36.2 2.98 45.2 12.15 8.99 9.16 11.91 23.96 11.91 46.03v8.48c0 21.44-2.72 35.92-11.05 45.22-8.37 9.34-21.94 12.95-42.14 14.02h-51.96V357h-48.52V187.64zM782.45 355h-44.52V189.64h94.56c43.24 0 55.12 12.08 55.12 56.18v8.48c0 42.82-11.03 55.12-51.3 57.24h-53.86V355zm2-127.32v43.7h36.59c4.63 0 8.16-.23 10.89-.82 2.7-.6 4.45-1.51 5.68-2.8 1.24-1.3 2.13-3.17 2.7-6.04.56-2.88.78-6.6.78-11.45 0-5.16-.22-9.15-.8-12.24-.57-3.08-1.47-5.11-2.72-6.51-1.24-1.38-3-2.35-5.67-2.97-2.71-.63-6.24-.87-10.86-.87h-36.59zm128.04-40.04H961v127.2H1035V357H912.49V187.64zM1033 316.84V355H914.49V189.64H959v127.2H1033zm154.1-129.2l-60.11 108.94V357h-48.52v-60.41l-61.2-108.95h55.53l30.15 60.3 30.78-60.3h53.37zm-115.53 2h-50.89l59.79 106.42V355h44.52v-58.94l58.72-106.42h-48.76l-31.37 61.48h-1.28l-30.73-61.48zM605.9 273.38h38.58c18.66 0 22.05-3.6 22.05-23.1 0-20.78-3.4-24.6-22.05-24.6H605.9v47.7zm176.55 0h38.59c18.65 0 22.05-3.6 22.05-23.1 0-20.78-3.4-24.6-22.05-24.6h-38.59v47.7z" clip-rule="evenodd"/>
    <path d="M1263.85 294.27v-3.4h-6.84l4.62-3.92c1.76-1.5 2.02-2 2.1-4.52.12-3.2-.92-4-6.32-4-5.42 0-6.22.84-6.22 5.4v.2h4v-.2c0-1.66.48-2.2 2.2-2.2 1.78 0 2.26.44 2.26 1.56 0 1-.5 1.5-1.64 2.46l-6.9 5.82v2.8h12.74zM1265.65 294.27h4.2v-6.26h2.22l3.54 6.26h4.8l-5.06-8.16 4.86-7.44h-4.6l-3.66 5.74h-2.1v-5.74h-4.2v15.6zM1284.41 294.27h3.8v-15.6h-3.6c0 2.04-.44 2.42-2.18 2.42h-1.82v2.8h3.8v10.38zM1289.61 283.61v.64c0 3.84.98 4.68 4.56 4.68 2.44 0 3.72-.68 4.22-2.42v3.4c0 1.34-.38 1.6-2.56 1.6-1.46 0-1.76-.16-1.76-1.08h-4c0 3.38.76 4 5.9 4 5.28 0 6.22-.66 6.22-4.24v-7.24c-.04-3.5-1.32-4.52-6.2-4.52-5.38 0-6.38.82-6.38 5.18zm4 .22v-.02c0-1.86.34-2.18 2.38-2.18 2.06 0 2.4.24 2.4 1.5v1.26c0 1.16-.6 1.44-2.4 1.44-2.04 0-2.38-.32-2.38-2z"/>
    <path fill-rule="evenodd" d="M1329.1 309.47c13.62-6.46 21.4-15.08 21.4-24.1 0-9.03-7.78-17.65-21.4-24.1-13.51-6.4-32.28-10.4-53.1-10.4s-39.59 4-53.1 10.4c-13.62 6.45-21.4 15.07-21.4 24.1 0 9.02 7.78 17.64 21.4 24.1 13.51 6.4 32.28 10.4 53.1 10.4s39.59-4 53.1-10.4zm-53.1 11.9c41.97 0 76-16.12 76-36 0-19.89-34.03-36-76-36s-76 16.11-76 36c0 19.88 34.03 36 76 36z" clip-rule="evenodd"/>
    <path d="M78.85 278.67v15.6h12.78v-3.6h-8.58v-2.6h7.56v-3.4h-7.56v-2.4h8.58v-3.6H78.85zM97.22 289.13v-.2h-4.4v.2c0 4.54 1.12 5.38 7.64 5.38 6.34 0 7.4-.72 7.4-4.48 0-3.1-.4-3.78-2.58-4.38a56.56 56.56 0 00-4.82-1.08c-2.54-.36-3.14-.58-3.14-1.38 0-1.12.48-1.36 3.14-1.36 2.44 0 2.82.34 2.82 2v.2h4.4v-.2c0-4.56-1.14-5.4-7.22-5.4-5.92 0-7.34.94-7.34 4.34 0 3.3.5 4.02 3.12 4.64 2.1.48 2.88.66 4.22.88 2.46.48 3.2.7 3.2 1.56 0 1.06-.54 1.26-3.2 1.26-2.7 0-3.24-.24-3.24-1.98zM113.34 294.27h4.2v-12.2h4.82v-3.4h-13.8v3.4h4.78v12.2z"/>
    <path fill-rule="evenodd" d="M153.1 309.47c13.62-6.46 21.4-15.08 21.4-24.1 0-9.03-7.78-17.65-21.4-24.1-13.51-6.4-32.28-10.4-53.1-10.4s-39.59 4-53.1 10.4c-13.62 6.45-21.4 15.07-21.4 24.1 0 9.02 7.78 17.64 21.4 24.1 13.51 6.4 32.28 10.4 53.1 10.4 20.81 0 39.59-4 53.1-10.4zm-53.1 11.9c41.97 0 76-16.12 76-36 0-19.89-34.03-36-76-36s-76 16.11-76 36c0 19.88 34.03 36 76 36z" clip-rule="evenodd"/>
  </g>
  <defs>
    <clipPath id="clip0">
      <path fill="#fff" d="M0 0h1376v365H0z"/>
    </clipPath>
  </defs>
</svg>
